X: 100
T: POLKA: Roundabout
C: C: Dave Hennessy; S: Various
C: Set Leaders: Sophie, Anton
Z: Anton Zille ed.; gian marco at The Session
N: https://thesession.org/members/26966/sets/99417
R: Polka
M: 2/4
L: 1/8
Q: 1/4=140
K: Dmaj
|:A,|DE FG|AB/A/ FA|GA/G/ FE|DF A,2|
DE FG|AB/A/ FA|GA/G/ FE|D2 D:||
|:F|E2 FE|DF AF|E>E FE|DB, B,A,|
E2 FE|DF AF|GA/G/ FE|D2 D:||

